public/img/assets/icons/weather-conditions/rain-snow-night.svg

<svg width="120" height="120" viewBox="0 0 120 120" fill="none" xmlns="http://www.w3.org/2000/svg">
<path d="M82.9375 36.8C82.8496 36.8 82.7764 36.8294 82.7031 36.8294C82.8643 36.0656 82.9375 35.2725 82.9375 34.45C82.9375 27.9581 77.6934 22.7 71.2188 22.7C67.6152 22.7 64.4365 24.3597 62.2832 26.93C59.5586 21.6425 54.124 18 47.7813 18C38.7139 18 31.375 25.3584 31.375 34.45C31.375 35.5222 31.4922 36.5503 31.6826 37.5638C26.0723 39.4144 22 44.6578 22 50.9C22 58.6844 28.2988 65 36.0625 65H82.9375C90.7012 65 97 58.6844 97 50.9C97 43.1156 90.7012 36.8 82.9375 36.8Z" fill="#FF99FF"/>
<rect x="43.5853" y="58" width="3.51214" height="15" rx="1" fill="#D580FF"/>
<rect width="3.5251" height="14.945" rx="1" transform="matrix(0.498161 -0.867085 0.86496 0.501841 38 63.2783)" fill="#D580FF"/>
<rect width="3.5251" height="14.945" rx="1" transform="matrix(-0.498161 -0.867085 -0.86496 0.501841 53 62.8213)" fill="#D580FF"/>
<rect x="71.5853" y="58" width="3.51214" height="15" rx="1" fill="#D580FF"/>
<rect width="3.5251" height="14.945" rx="1" transform="matrix(0.498161 -0.867085 0.86496 0.501841 66 63.2783)" fill="#D580FF"/>
<rect width="3.5251" height="14.945" rx="1" transform="matrix(-0.498161 -0.867085 -0.86496 0.501841 81 62.8213)" fill="#D580FF"/>
<rect x="57.5853" y="73" width="3.51214" height="15" rx="1" fill="#D580FF"/>
<rect width="3.5251" height="14.945" rx="1" transform="matrix(0.498161 -0.867085 0.86496 0.501841 52 78.2783)" fill="#D580FF"/>
<rect width="3.5251" height="14.945" rx="1" transform="matrix(-0.498161 -0.867085 -0.86496 0.501841 67 77.8213)" fill="#D580FF"/>
<path fill-rule="evenodd" clip-rule="evenodd" d="M49.1803 65.1308L53.0207 62.9135L51.272 59.8847L47.143 62.2686V58.136H43.6456V62.5391L39.8323 60.3376L38.0836 63.3664L41.1396 65.1308H49.1803Z" fill="#9966FF"/>
<path fill-rule="evenodd" clip-rule="evenodd" d="M77.1596 65.1308L81 62.9135L79.2513 59.8847L75.1222 62.2686V58.136H71.6248V62.5391L67.8116 60.3376L66.0629 63.3664L69.1189 65.1308H77.1596Z" fill="#9966FF"/>
<path d="M47.2308 84.6484C45.8769 89.2726 43 90.5224 43 93.7822C43 96.6671 45.274 99 48.0769 99C50.8798 99 53.1538 96.6671 53.1538 93.7822C53.1538 90.5119 50.2769 89.2934 48.9231 84.6484C48.6904 83.8048 47.4952 83.7632 47.2308 84.6484Z" fill="#D580FF"/>
<path d="M69.2308 84.6484C67.8769 89.2726 65 90.5224 65 93.7822C65 96.6671 67.274 99 70.0769 99C72.8798 99 75.1538 96.6671 75.1538 93.7822C75.1538 90.5119 72.2769 89.2934 70.9231 84.6484C70.6904 83.8048 69.4952 83.7632 69.2308 84.6484Z" fill="#D580FF"/>
</svg>

<svg width="120" height="120" fill="none" xmlns="http://www.w3.org/2000/svg"><path d="M82.938 36.8c-.088 0-.162.03-.235.03.161-.764.234-1.557.234-2.38 0-6.492-5.244-11.75-11.718-11.75-3.604 0-6.782 1.66-8.936 4.23C59.56 21.642 54.124 18 47.781 18c-9.067 0-16.406 7.358-16.406 16.45 0 1.072.117 2.1.308 3.114C26.073 39.414 22 44.658 22 50.9 22 58.684 28.299 65 36.063 65h46.874C90.701 65 97 58.684 97 50.9s-6.299-14.1-14.063-14.1Z" fill="#F9F"/><rect x="43.585" y="58" width="3.512" height="15" rx="1" fill="#D580FF"/><rect width="3.525" height="14.945" rx="1" transform="matrix(.49816 -.86708 .86496 .50184 38 63.278)" fill="#D580FF"/><rect width="3.525" height="14.945" rx="1" transform="matrix(-.49816 -.86708 -.86496 .50184 53 62.821)" fill="#D580FF"/><rect x="71.585" y="58" width="3.512" height="15" rx="1" fill="#D580FF"/><rect width="3.525" height="14.945" rx="1" transform="matrix(.49816 -.86708 .86496 .50184 66 63.278)" fill="#D580FF"/><rect width="3.525" height="14.945" rx="1" transform="matrix(-.49816 -.86708 -.86496 .50184 81 62.821)" fill="#D580FF"/><rect x="57.585" y="73" width="3.512" height="15" rx="1" fill="#D580FF"/><rect width="3.525" height="14.945" rx="1" transform="matrix(.49816 -.86708 .86496 .50184 52 78.278)" fill="#D580FF"/><rect width="3.525" height="14.945" rx="1" transform="matrix(-.49816 -.86708 -.86496 .50184 67 77.821)" fill="#D580FF"/><path fill-rule="evenodd" clip-rule="evenodd" d="m49.18 65.13 3.84-2.216-1.748-3.03-4.129 2.385v-4.133h-3.497v4.403l-3.814-2.201-1.748 3.028 3.056 1.765h8.04ZM77.16 65.13 81 62.915l-1.749-3.03-4.129 2.385v-4.133h-3.497v4.403l-3.813-2.201-1.75 3.028 3.057 1.765h8.04Z" fill="#96F"/><path d="M47.23 84.648C45.878 89.273 43 90.522 43 93.782 43 96.667 45.274 99 48.077 99s5.077-2.333 5.077-5.218c0-3.27-2.877-4.489-4.23-9.134-.234-.843-1.429-.885-1.693 0ZM69.23 84.648C67.878 89.273 65 90.522 65 93.782 65 96.667 67.274 99 70.077 99s5.077-2.333 5.077-5.218c0-3.27-2.877-4.489-4.23-9.134-.234-.843-1.429-.885-1.693 0Z" fill="#D580FF"/></svg>
